!!!!SEGMENT: pl-kozmzk--mzk-m-159--011_walczynski-franciszek--praeludia-organi-op-5-andantino.krn
!!!cenid: 18xx:2754
!!!COM: Walczyński, Franciszek
!!!COM-rismid: pe30021989
!!!CDT: ~1852-1937
!!!CNT: Polish
!!!GTL: Praeludia organi op. 5
!!!OTL: 11. Andantino
!!!PDT: 1894
!!!AGN: Secular; Prelude
!!!SMS-siglum: PL-KOZmzk
!!!SMS-shelfmark: mzk/m/159
!!!SMS-shelfwork: 011 G
!!!SMS-variant:
!!!SMS-altvar:
!!!NIFC-rismid: 1001116627
!!!URL-scan: https://repozytorium.nifc.pl/islandora/object/pl-kozmzk%3A2265/datastream/PDF/view
!!!ONB-nifc: UWAGA: numeracja plików zgodna z numeracją źrodłową
!!!OMD: 11. Andantino.
!!!key:
**kern	**kern	**dynam
*part2	*part1	*part1
*staff2	*staff1	*
*Iempty	*Iempty	*
*I"	*I"	*
*clefF4	*clefG2	*
*k[f#c#g#d#a#]	*k[f#c#g#d#a#]	*
*B:	*B:	*
*M3/4	*M3/4	*
=1	=1	=1
*	*^	*
(8B\L	2.r	2.r	f
8A#\	.	.	.
8c#\)	.	.	.
8B'\	.	.	.
8A#'\	.	.	.
8G#'\J	.	.	.
=2	=2	=2	=2
(8F#\L	2.r	(8d#\L	.
8E\	.	8c#\	.
8G#\)	.	8e\)	.
8F#'\	.	8d#'\	.
8E'\	.	8c#'\	.
8D#'\J	.	8B'\J	.
=3	=3	=3	=3
(4C#/	(8b/L	(4e\	f
.	8a#/	.	.
4D#\	8cc#/)	4f#\	.
.	8b'/	.	.
4E#X\)	8a#'/	4c##X\)	.
.	8g#'/J	.	.
=4	=4	=4	=4
!	!	!	!LO:DY:a
(>(4F#\	(8f#/L	([4A#\	p
.	8e/J	.	.
8F##X\L)	2d#/)	8A#\L]	.
8A#\	.	8c#\	.
8G#\	.	8B\	.
8F##\J)	.	8A#\J)	.
=5	=5	=5	=5
(8G#\L	(2d#/	[2B\	.
8F##X\	.	.	.
8G#\)	.	.	.
!LO:N:acc=n#	!	!	!
8F#'\	.	.	.
8E'\	[4g#/	4B\]	.
8D#'\J	.	.	.
=6	=6	=6	=6
(2C#/	2g#/]	(8e\L	.
.	.	8d#\	.
.	.	8f#\)	.
.	.	8e'\	.
4FF##X/	4a#/)	8d#'\	.
.	.	8c#'\J	.
=7	=7	=7	=7
2GG#/	(8b/L	2d#\	.
.	8a#/	.	.
.	8cc#/)	.	.
.	8b'/	.	.
4EE#X/)	8a#'/	4c##X\	.
.	8g#'/J	.	.
=8	=8	=8	=8
!LO:N:acc=n#	!	!	!
2.FF#\	(8f#/L	(8d#\L	.
.	8e#X/	8dn\	.
.	8en/	8c#\	.
!LO:TX:b:i:t=rit.	!	!	!
.	[8d#X/J	8B'<\)	.
.	8d#/]L	8F#<'</	.
.	8c#'>/J)	8E<'</J	.
=9	=9	=9	=9
2.BB;<\	2.B/;	2.D#</	pp
*	*v	*v	*
==	==	==
*-	*-	*-
!!!system-decoration: {(s1,s2)}
!!!EED: Andrzej Borzym
!!!EST: 2021-08-08
!!!RDF**kern: > = above
!!!RDF**kern: < = below
!!!AIN: 2 empty
!!!ENC: Krzysztof Stępień
!!!END: 2021-07-26
